src/icons/roocode.svg

<svg width="120" height="21" viewBox="0 0 120 21" fill="none" xmlns="http://www.w3.org/2000/svg">
<path d="M27.6939 0.698856L27.0853 2.88004C27.0531 2.99552 26.9315 3.06224 26.8157 3.02799L16.6072 0.00893058C16.5393 -0.0111487 16.4658 0.00308892 16.4106 0.047029L6.30049 8.08333C6.27097 8.10679 6.23575 8.12215 6.19836 8.12786L0.18292 9.04674C0.0715357 9.06375 -0.0078759 9.16286 0.000622655 9.27425L0.0267609 9.61687C0.035109 9.72631 0.125665 9.81172 0.236347 9.81456L7.22353 9.99359L7.30322 9.9958L12.4661 7.2622C12.5383 7.22393 12.6263 7.22955 12.693 7.27669L16.3507 9.86111C16.408 9.90164 16.4418 9.96737 16.4412 10.0372L16.4103 13.4664C16.4099 13.5108 16.4235 13.5542 16.4491 13.5906L21.5943 20.9084C21.6346 20.9658 21.7007 21 21.7713 21H23.4001C23.5626 21 23.6668 20.8287 23.5909 20.6863L19.9237 13.8002C19.8878 13.7328 19.8908 13.6516 19.9315 13.5871L21.8435 10.551C21.8643 10.5179 21.8939 10.4912 21.9289 10.4735L28.7648 7.03514C28.8342 7.00021 28.9173 7.00508 28.9821 7.0479L30.9355 8.33851C30.971 8.36193 31.0126 8.37442 31.0552 8.37442H32.83C33.0019 8.37442 33.1047 8.18497 33.0101 8.04276L28.082 0.63809C27.98 0.484786 27.7433 0.521844 27.6939 0.698856Z" fill="white"/>
<path d="M46.6228 8.1575H49.66C50.2957 8.1575 50.7725 8.0175 51.0903 7.7375C51.4082 7.4575 51.5671 7.0025 51.5671 6.3725C51.5671 5.76583 51.4082 5.32833 51.0903 5.06C50.7725 4.78 50.2957 4.64 49.66 4.64H46.6228V8.1575ZM43.8504 2.505H50.6489C51.2139 2.505 51.7201 2.59833 52.1675 2.785C52.6266 2.96 53.0151 3.205 53.3329 3.52C53.6625 3.835 53.9097 4.2025 54.0745 4.6225C54.2511 5.03083 54.3394 5.47417 54.3394 5.9525C54.3394 6.6875 54.1805 7.32333 53.8627 7.86C53.5566 8.39667 53.0504 8.805 52.344 9.085V9.12C52.6854 9.21333 52.968 9.35917 53.1916 9.5575C53.4153 9.74417 53.5978 9.97167 53.739 10.24C53.8803 10.4967 53.9804 10.7825 54.0392 11.0975C54.1099 11.4125 54.157 11.7275 54.1805 12.0425C54.1923 12.2408 54.204 12.4742 54.2158 12.7425C54.2276 13.0108 54.2452 13.285 54.2688 13.565C54.3041 13.845 54.3512 14.1133 54.4101 14.37C54.4807 14.615 54.5808 14.825 54.7102 15H51.9379C51.7849 14.6033 51.6907 14.1308 51.6554 13.5825C51.6201 13.0342 51.5671 12.5092 51.4964 12.0075C51.4023 11.3542 51.2021 10.8758 50.8961 10.5725C50.59 10.2692 50.0897 10.1175 49.3951 10.1175H46.6228V15H43.8504V2.505Z" fill="white"/>
<path d="M57.6712 10.485C57.6712 10.8467 57.7065 11.2025 57.7771 11.5525C57.8478 11.8908 57.9655 12.2 58.1303 12.48C58.3069 12.7483 58.5364 12.9642 58.819 13.1275C59.1015 13.2908 59.4547 13.3725 59.8785 13.3725C60.3023 13.3725 60.6554 13.2908 60.9379 13.1275C61.2322 12.9642 61.4618 12.7483 61.6266 12.48C61.8032 12.2 61.9268 11.8908 61.9974 11.5525C62.0681 11.2025 62.1034 10.8467 62.1034 10.485C62.1034 10.1233 62.0681 9.7675 61.9974 9.4175C61.9268 9.0675 61.8032 8.75833 61.6266 8.49C61.4618 8.22167 61.2322 8.00583 60.9379 7.8425C60.6554 7.6675 60.3023 7.58 59.8785 7.58C59.4547 7.58 59.1015 7.6675 58.819 7.8425C58.5364 8.00583 58.3069 8.22167 58.1303 8.49C57.9655 8.75833 57.8478 9.0675 57.7771 9.4175C57.7065 9.7675 57.6712 10.1233 57.6712 10.485ZM55.1637 10.485C55.1637 9.76167 55.2755 9.10833 55.4992 8.525C55.7229 7.93 56.0407 7.42833 56.4528 7.02C56.8648 6.6 57.3592 6.27917 57.936 6.0575C58.5129 5.82417 59.1604 5.7075 59.8785 5.7075C60.5966 5.7075 61.244 5.82417 61.8209 6.0575C62.4095 6.27917 62.9098 6.6 63.3218 7.02C63.7338 7.42833 64.0517 7.93 64.2754 8.525C64.499 9.10833 64.6109 9.76167 64.6109 10.485C64.6109 11.2083 64.499 11.8617 64.2754 12.445C64.0517 13.0283 63.7338 13.53 63.3218 13.95C62.9098 14.3583 62.4095 14.6733 61.8209 14.895C61.244 15.1167 60.5966 15.2275 59.8785 15.2275C59.1604 15.2275 58.5129 15.1167 57.936 14.895C57.3592 14.6733 56.8648 14.3583 56.4528 13.95C56.0407 13.53 55.7229 13.0283 55.4992 12.445C55.2755 11.8617 55.1637 11.2083 55.1637 10.485Z" fill="white"/>
<path d="M67.5832 10.485C67.5832 10.8467 67.6185 11.2025 67.6892 11.5525C67.7598 11.8908 67.8775 12.2 68.0424 12.48C68.2189 12.7483 68.4485 12.9642 68.731 13.1275C69.0135 13.2908 69.3667 13.3725 69.7905 13.3725C70.2143 13.3725 70.5675 13.2908 70.85 13.1275C71.1443 12.9642 71.3739 12.7483 71.5387 12.48C71.7153 12.2 71.8389 11.8908 71.9095 11.5525C71.9801 11.2025 72.0155 10.8467 72.0155 10.485C72.0155 10.1233 71.9801 9.7675 71.9095 9.4175C71.8389 9.0675 71.7153 8.75833 71.5387 8.49C71.3739 8.22167 71.1443 8.00583 70.85 7.8425C70.5675 7.6675 70.2143 7.58 69.7905 7.58C69.3667 7.58 69.0135 7.6675 68.731 7.8425C68.4485 8.00583 68.2189 8.22167 68.0424 8.49C67.8775 8.75833 67.7598 9.0675 67.6892 9.4175C67.6185 9.7675 67.5832 10.1233 67.5832 10.485ZM65.0758 10.485C65.0758 9.76167 65.1876 9.10833 65.4113 8.525C65.6349 7.93 65.9528 7.42833 66.3648 7.02C66.7768 6.6 67.2713 6.27917 67.8481 6.0575C68.4249 5.82417 69.0724 5.7075 69.7905 5.7075C70.5086 5.7075 71.1561 5.82417 71.7329 6.0575C72.3215 6.27917 72.8218 6.6 73.2339 7.02C73.6459 7.42833 73.9637 7.93 74.1874 8.525C74.4111 9.10833 74.5229 9.76167 74.5229 10.485C74.5229 11.2083 74.4111 11.8617 74.1874 12.445C73.9637 13.0283 73.6459 13.53 73.2339 13.95C72.8218 14.3583 72.3215 14.6733 71.7329 14.895C71.1561 15.1167 70.5086 15.2275 69.7905 15.2275C69.0724 15.2275 68.4249 15.1167 67.8481 14.895C67.2713 14.6733 66.7768 14.3583 66.3648 13.95C65.9528 13.53 65.6349 13.0283 65.4113 12.445C65.1876 11.8617 65.0758 11.2083 65.0758 10.485Z" fill="white"/>
<path d="M87.9723 6.705C87.9252 6.39 87.8192 6.10417 87.6544 5.8475C87.4896 5.57917 87.2836 5.34583 87.0364 5.1475C86.7892 4.94917 86.5067 4.7975 86.1888 4.6925C85.8827 4.57583 85.559 4.5175 85.2176 4.5175C84.5937 4.5175 84.0639 4.64 83.6284 4.885C83.1928 5.11833 82.8396 5.43917 82.5689 5.8475C82.2981 6.24417 82.098 6.69917 81.9685 7.2125C81.8508 7.72583 81.7919 8.25667 81.7919 8.805C81.7919 9.33 81.8508 9.84333 81.9685 10.345C82.098 10.835 82.2981 11.2783 82.5689 11.675C82.8396 12.0717 83.1928 12.3925 83.6284 12.6375C84.0639 12.8708 84.5937 12.9875 85.2176 12.9875C86.0652 12.9875 86.7244 12.7308 87.1953 12.2175C87.678 11.7042 87.9723 11.0275 88.0782 10.1875H90.7623C90.6916 10.9692 90.5092 11.675 90.2149 12.305C89.9206 12.935 89.5321 13.4717 89.0494 13.915C88.5668 14.3583 88.0017 14.6967 87.3542 14.93C86.7068 15.1633 85.9946 15.28 85.2176 15.28C84.2523 15.28 83.3811 15.1167 82.6042 14.79C81.839 14.4517 81.1915 13.9908 80.6618 13.4075C80.132 12.8242 79.7259 12.1417 79.4434 11.36C79.1608 10.5667 79.0196 9.715 79.0196 8.805C79.0196 7.87167 79.1608 7.00833 79.4434 6.215C79.7259 5.41 80.132 4.71 80.6618 4.115C81.1915 3.52 81.839 3.05333 82.6042 2.715C83.3811 2.37667 84.2523 2.2075 85.2176 2.2075C85.9122 2.2075 86.5655 2.30667 87.1777 2.505C87.8016 2.70333 88.3549 2.995 88.8375 3.38C89.332 3.75333 89.7381 4.22 90.056 4.78C90.3738 5.34 90.5739 5.98167 90.6563 6.705H87.9723Z" fill="white"/>
<path d="M93.7326 10.485C93.7326 10.8467 93.7679 11.2025 93.8385 11.5525C93.9092 11.8908 94.0269 12.2 94.1917 12.48C94.3683 12.7483 94.5978 12.9642 94.8804 13.1275C95.1629 13.2908 95.5161 13.3725 95.9399 13.3725C96.3637 13.3725 96.7168 13.2908 96.9994 13.1275C97.2937 12.9642 97.5232 12.7483 97.688 12.48C97.8646 12.2 97.9882 11.8908 98.0589 11.5525C98.1295 11.2025 98.1648 10.8467 98.1648 10.485C98.1648 10.1233 98.1295 9.7675 98.0589 9.4175C97.9882 9.0675 97.8646 8.75833 97.688 8.49C97.5232 8.22167 97.2937 8.00583 96.9994 7.8425C96.7168 7.6675 96.3637 7.58 95.9399 7.58C95.5161 7.58 95.1629 7.6675 94.8804 7.8425C94.5978 8.00583 94.3683 8.22167 94.1917 8.49C94.0269 8.75833 93.9092 9.0675 93.8385 9.4175C93.7679 9.7675 93.7326 10.1233 93.7326 10.485ZM91.2251 10.485C91.2251 9.76167 91.337 9.10833 91.5606 8.525C91.7843 7.93 92.1021 7.42833 92.5142 7.02C92.9262 6.6 93.4206 6.27917 93.9975 6.0575C94.5743 5.82417 95.2218 5.7075 95.9399 5.7075C96.658 5.7075 97.3054 5.82417 97.8823 6.0575C98.4709 6.27917 98.9712 6.6 99.3832 7.02C99.7953 7.42833 100.113 7.93 100.337 8.525C100.56 9.10833 100.672 9.76167 100.672 10.485C100.672 11.2083 100.56 11.8617 100.337 12.445C100.113 13.0283 99.7953 13.53 99.3832 13.95C98.9712 14.3583 98.4709 14.6733 97.8823 14.895C97.3054 15.1167 96.658 15.2275 95.9399 15.2275C95.2218 15.2275 94.5743 15.1167 93.9975 14.895C93.4206 14.6733 92.9262 14.3583 92.5142 13.95C92.1021 13.53 91.7843 13.0283 91.5606 12.445C91.337 11.8617 91.2251 11.2083 91.2251 10.485Z" fill="white"/>
<path d="M107.9 10.45C107.9 10.0767 107.865 9.72083 107.794 9.3825C107.724 9.0325 107.6 8.72917 107.424 8.4725C107.259 8.20417 107.041 7.98833 106.77 7.825C106.499 7.66167 106.158 7.58 105.746 7.58C105.334 7.58 104.987 7.66167 104.704 7.825C104.422 7.98833 104.192 8.20417 104.015 8.4725C103.851 8.74083 103.727 9.05 103.645 9.4C103.574 9.73833 103.539 10.0942 103.539 10.4675C103.539 10.8175 103.58 11.1675 103.662 11.5175C103.745 11.8675 103.874 12.1825 104.051 12.4625C104.239 12.7308 104.469 12.9525 104.739 13.1275C105.022 13.2908 105.357 13.3725 105.746 13.3725C106.158 13.3725 106.499 13.2908 106.77 13.1275C107.053 12.9642 107.276 12.7483 107.441 12.48C107.606 12.2 107.724 11.885 107.794 11.535C107.865 11.185 107.9 10.8233 107.9 10.45ZM107.936 13.845H107.9C107.606 14.335 107.218 14.6908 106.735 14.9125C106.264 15.1225 105.728 15.2275 105.128 15.2275C104.445 15.2275 103.845 15.0992 103.327 14.8425C102.809 14.5742 102.379 14.2183 102.038 13.775C101.708 13.32 101.455 12.8008 101.278 12.2175C101.114 11.6342 101.031 11.0275 101.031 10.3975C101.031 9.79083 101.114 9.2075 101.278 8.6475C101.455 8.07583 101.708 7.57417 102.038 7.1425C102.379 6.71083 102.803 6.36667 103.309 6.11C103.815 5.84167 104.404 5.7075 105.075 5.7075C105.616 5.7075 106.129 5.82417 106.611 6.0575C107.106 6.27917 107.494 6.61167 107.777 7.055H107.812V2.505H110.319V15H107.936V13.845Z" fill="white"/>
<path d="M117.477 9.505C117.359 8.875 117.147 8.39667 116.841 8.07C116.547 7.74333 116.094 7.58 115.481 7.58C115.081 7.58 114.746 7.65 114.475 7.79C114.216 7.91833 114.004 8.08167 113.839 8.28C113.686 8.47833 113.574 8.68833 113.504 8.91C113.445 9.13167 113.41 9.33 113.398 9.505H117.477ZM113.398 11.08C113.433 11.885 113.639 12.4683 114.016 12.83C114.393 13.1917 114.934 13.3725 115.64 13.3725C116.147 13.3725 116.582 13.25 116.947 13.005C117.312 12.7483 117.536 12.48 117.618 12.2H119.825C119.472 13.285 118.931 14.0608 118.201 14.5275C117.471 14.9942 116.588 15.2275 115.552 15.2275C114.834 15.2275 114.187 15.1167 113.61 14.895C113.033 14.6617 112.544 14.335 112.144 13.915C111.744 13.495 111.432 12.9933 111.208 12.41C110.996 11.8267 110.89 11.185 110.89 10.485C110.89 9.80833 111.002 9.17833 111.226 8.595C111.449 8.01167 111.767 7.51 112.179 7.09C112.591 6.65833 113.08 6.32 113.645 6.075C114.222 5.83 114.858 5.7075 115.552 5.7075C116.329 5.7075 117.006 5.85917 117.583 6.1625C118.16 6.45417 118.631 6.85083 118.995 7.3525C119.372 7.85417 119.643 8.42583 119.808 9.0675C119.973 9.70917 120.031 10.38 119.984 11.08H113.398Z" fill="white"/>
</svg>

<svg version="1.2" xmlns="http://www.w3.org/2000/svg" viewBox="0 0 33 21" width="33" height="21">
	<style>
		.s0 { fill: #ffffff } 
	</style>
	<path class="s0" d="m27.69 0.7l-0.6 2.18c-0.04 0.12-0.16 0.18-0.27 0.15l-10.21-3.02q-0.11-0.03-0.2 0.04l-10.11 8.03q-0.04 0.04-0.1 0.05l-6.02 0.92c-0.11 0.01-0.19 0.11-0.18 0.22l0.03 0.35c0.01 0.11 0.1 0.19 0.21 0.19l6.98 0.18 0.08 0.01 5.17-2.74q0.11-0.05 0.22 0.02l3.66 2.58q0.09 0.07 0.09 0.18l-0.03 3.43q0 0.06 0.04 0.12l5.14 7.32q0.07 0.09 0.18 0.09h1.63c0.16 0 0.27-0.17 0.19-0.31l-3.67-6.89q-0.05-0.11 0.01-0.21l1.91-3.04q0.04-0.05 0.09-0.08l6.83-3.43q0.12-0.06 0.22 0.01l1.96 1.29q0.05 0.03 0.12 0.03h1.77c0.17 0 0.27-0.19 0.18-0.33l-4.93-7.4c-0.1-0.16-0.34-0.12-0.39 0.06z"/>
</svg>
